editors/vscode/static/assets/img/slint-favicon.svg

<svg fill="none" height="64" viewBox="0 0 64 64" width="64" xmlns="http://www.w3.org/2000/svg"><g fill="#2379f4"><path d="m20.6632 55.828 28.0701-18.7971s1.2667-.7031 1.2667-1.8127c0-1.4776-1.6019-1.9583-1.6019-1.9583l-15.4424-5.9049c-.551-.2088-1.3093.3762-.5993 1.1178l5.1125 4.9437s1.4201 1.3485 1.4201 2.2329-.872 1.6726-.872 1.6726l-18.6035 17.3689c-.6618.618.2329 1.7385 1.2497 1.1371z"/><path d="m43.3368 8.17339-28.0701 18.79431s-1.2667.7031-1.2667 1.8127c0 1.4776 1.6019 1.9583 1.6019 1.9583l15.4424 5.9077c.551.206 1.3122-.379.5993-1.1178l-5.1125-4.9602s-1.4201-1.3458-1.4201-2.2329c0-.8872.872-1.6727.872-1.6727l18.5922-17.35511c.6731-.61796-.2187-1.73853-1.2384-1.1343z"/></g></svg>

<svg width="64" height="64" viewBox="0 0 64 64" fill="none" xmlns="http://www.w3.org/2000/svg">
<path d="M20.6632 55.828L48.7333 37.0309C48.7333 37.0309 50 36.3278 50 35.2182C50 33.7406 48.3981 33.2599 48.3981 33.2599L32.9557 27.355C32.4047 27.1462 31.6464 27.7312 32.3564 28.4728L37.4689 33.4165C37.4689 33.4165 38.889 34.765 38.889 35.6494C38.889 36.5338 38.017 37.322 38.017 37.322L19.4135 54.6909C18.7517 55.3089 19.6464 56.4294 20.6632 55.828Z" fill="#2379F4"/>
<path d="M43.3368 8.17339L15.2667 26.9677C15.2667 26.9677 14 27.6708 14 28.7804C14 30.258 15.6019 30.7387 15.6019 30.7387L31.0443 36.6464C31.5953 36.8524 32.3565 36.2674 31.6436 35.5286L26.5311 30.5684C26.5311 30.5684 25.111 29.2226 25.111 28.3355C25.111 27.4483 25.983 26.6628 25.983 26.6628L44.5752 9.30769C45.2483 8.68973 44.3565 7.56916 43.3368 8.17339Z" fill="#2379F4"/>
</svg>
